src/card_system/visa.svg

<svg viewBox="0 0 256 256" fill="none" xmlns="http://www.w3.org/2000/svg">
<path d="M0 0H256V256H0V0Z" fill="white"/>
<path d="M0 0H256V256H0V0Z" fill="url(#paint0_linear)"/>
<path d="M131.983 114.977C131.853 125.424 141.282 131.254 148.391 134.719C155.691 138.278 158.146 140.558 158.118 143.739C158.062 148.608 152.295 150.754 146.895 150.838C137.476 150.982 132.002 148.291 127.646 146.258L124.254 162.152C128.624 164.167 136.712 165.925 145.097 166C164.785 166 177.666 156.271 177.736 141.183C177.81 122.038 151.284 120.979 151.466 112.421C151.526 109.828 154 107.058 159.423 106.354C162.106 105.999 169.508 105.724 177.903 109.595L181.197 94.2181C176.683 92.5764 170.878 91 163.653 91C145.125 91 132.09 100.864 131.983 114.977ZM212.862 92.3245C209.265 92.3245 206.237 94.4233 204.886 97.646L176.762 164.871H196.435L200.349 154.042H224.392L226.665 164.871H244L228.869 92.3245H212.862ZM215.61 111.922L221.289 139.164H205.739L215.61 111.922ZM108.131 92.3245L92.6223 164.871H111.369L126.873 92.3245H108.131ZM80.3981 92.3245L60.8831 141.701L52.9913 99.7168C52.0643 95.0296 48.4072 92.3245 44.3449 92.3245H12.4472L12 94.4326C18.55 95.8551 25.9899 98.1497 30.4948 100.603C33.2527 102.105 34.04 103.415 34.9484 106.978L49.898 164.871H69.7112L100.085 92.3245H80.3981Z" fill="white"/>
<defs>
<linearGradient id="paint0_linear" x1="41.3393" y1="88.0661" x2="227.622" y2="143.174" gradientUnits="userSpaceOnUse">
<stop stop-color="#222357"/>
<stop offset="1" stop-color="#254AA5"/>
</linearGradient>
</defs>
</svg>

<svg xmlns="http://www.w3.org/2000/svg" viewBox="0 0 256 256"><defs><style>.cls-1{fill:#1a1f71;}</style></defs><path class="cls-1" d="M132,115c-.13,10.44,9.3,16.27,16.41,19.74,7.3,3.56,9.76,5.84,9.73,9-.06,4.87-5.83,7-11.22,7.1-9.42.14-14.9-2.55-19.25-4.58l-3.4,15.89c4.37,2,12.46,3.78,20.85,3.85,19.69,0,32.57-9.73,32.64-24.82.07-19.14-26.46-20.2-26.27-28.76.06-2.59,2.53-5.36,7.95-6.07a35.22,35.22,0,0,1,18.48,3.25l3.3-15.38A50.39,50.39,0,0,0,163.65,91C145.12,91,132.09,100.86,132,115Zm80.88-22.66a8.52,8.52,0,0,0-8,5.33l-28.13,67.22h19.67L200.35,154h24l2.27,10.83H244L228.87,92.32Zm2.75,19.6,5.68,27.24H205.74ZM108.13,92.32,92.62,164.87h18.75l15.5-72.55Zm-27.73,0L60.88,141.7,53,99.72a8.75,8.75,0,0,0-8.65-7.4H12.45L12,94.43c6.55,1.43,14,3.72,18.49,6.17C33.25,102.11,34,103.42,35,107L49.9,164.87H69.71l30.37-72.55Z"/></svg>
